X: 131057
T: Molloy's Favorite
S: "Sully's Irish Music Book"
Z: B.Black
L: 1/8
M: 6/8
R: jig
K: Edor
e/f/|g3 edc|B3 EFG|FEF DFA|dAF AFD|
g3 edc|B3 EFG|B/c/dB AGF|GEE E2 :|
B|efe Beg|bge gfe|dcd Adf|afd fed|
efe Beg|bag fed|B/c/dB AGF|GEE E2 :|
